src/icons/android-print.svg

<svg xmlns="http://www.w3.org/2000/svg" width="512" height="512" viewBox="0 0 512 512">
    <path d="M399.95 153.5h-287.9c-35.226 0-64.05 28.803-64.05 64v138.667h79.899V441.5H384.1v-85.333H464V217.5c0-35.197-28.825-64-64.05-64zM352 409.5H160v-128h192v128zm32.101-352H127.899v80h256.202v-80z"/>
</svg>

<?xml version="1.0" encoding="UTF-8"?>
<svg width="512px" height="512px" viewBox="0 0 512 512" version="1.1" xmlns="http://www.w3.org/2000/svg" xmlns:xlink="http://www.w3.org/1999/xlink">
    <!-- Generator: Sketch 62 (91390) - https://sketch.com -->
    <title>android-print</title>
    <desc>Created with Sketch.</desc>
    <g id="android-print" stroke="none" stroke-width="1" fill="none" fill-rule="evenodd">
        <path d="M399.95,153.5 L112.05,153.5 C76.824,153.5 48,182.303 48,217.5 L48,356.167 L127.899,356.167 L127.899,441.5 L384.1,441.5 L384.1,356.167 L464,356.167 L464,217.5 C464,182.303 435.175,153.5 399.95,153.5 Z M352,409.5 L160,409.5 L160,281.5 L352,281.5 L352,409.5 Z M384.101,57.5 L127.899,57.5 L127.899,137.5 L384.101,137.5 L384.101,57.5 L384.101,57.5 Z" id="Shape" fill="#000000" fill-rule="nonzero"></path>
    </g>
</svg>
